X: 194
T: Hora Din Goicesti
O: Romania
S: Gypsy Camp volume 2
M: 2/4
L: 1/8
Q: 1/4=240
P:AABBCC
K: CPhr 
%%MIDI program 75
P:A
  F=EDC |DCD=E|FDB,2|B,2z2   |\
  F=EDC |DCD=E|FDB,2|B,2z2   |
  B,CDB,|CD=EC|D=EFD|=EFGE   |\
  BAGF  |GF=ED|=EDC2|C2z2    |
P:B
|:z2=EF |G2C2 |G3F  |=EFG2   |\
  BAAG  |GF=EF|=EDC2|C2z2    :|
P:C
|:B3B   |BAAG |FGAG |B2A2    |\
  BAAG  |GF=EF|=EDC2|[1C=EG2 :|[2C2z2|



